img/svg/checkbox-on.svg

<svg width="25" height="23" viewBox="0 0 25 23" fill="none" xmlns="http://www.w3.org/2000/svg">
<g opacity="0.4">
<path d="M6.95925 8.48591L4.25684 11.3149L11.6916 19.0979L25.0002 5.16591L22.2988 2.33691L11.6916 13.4389L6.95925 8.48591Z" fill="#4D4D4D"/>
<path d="M21 20C21 20.542 20.542 21 20 21H3C2.458 21 2 20.542 2 20V3C2 2.458 2.458 2 3 2H19.908L21.493 0.415C21.041 0.146542 20.5257 0.00329969 20 0H3C1.35 0 0 1.35 0 3V20C0 21.65 1.35 23 3 23H20C21.65 23 23 21.65 23 20V10.171L21 12.171V20Z" fill="#4D4D4D"/>
</g>
</svg>

<svg width="25" height="23" fill="none" xmlns="http://www.w3.org/2000/svg"><path d="M7 8.5l-2.7 2.8 7.4 7.8L25 5.1l-2.7-2.8-10.6 11.1-4.7-5z" fill="#4D4D4D"/><path d="M21 20c0 .5-.5 1-1 1H3a1 1 0 01-1-1V3c0-.5.5-1 1-1h17L21.4.4A3 3 0 0020 0H3a3 3 0 00-3 3v17a3 3 0 003 3h17a3 3 0 003-3v-9.8l-2 2V20z" fill="#4D4D4D"/></svg>
